X: 5
M:3/8
L:1/8
K:G
"Moderato"G|GBd|d>BG|cee|e2 d/2c/2|Bdg|dBG|A>FD|D2||
dfg|a/2g/2f/2e/2d/2c/2|BAG|GB/2d/2c|
dg f/2g/2|a/2g/2f/2e/2d/2c/2|BGG|G2||

